gama.ui.shared/icons_svg/dark/toolbar/view.pause.svg

<?xml version="1.0" encoding="UTF-8" standalone="no"?>
<!DOCTYPE svg PUBLIC "-//W3C//DTD SVG 1.1//EN" "http://www.w3.org/Graphics/SVG/1.1/DTD/svg11.dtd">
<svg xmlns="http://www.w3.org/2000/svg" xmlns:dc="http://purl.org/dc/elements/1.1/" version="1.1" xmlns:xl="http://www.w3.org/1999/xlink" viewBox="-698.5258 -2877.1304 24.75 24.75" width="24.75" height="24.75">
  <defs/>
  <g id="SOURCES" stroke-dasharray="none" stroke-opacity="1" stroke="none" fill="none" fill-opacity="1">
    <title>SOURCES</title>
    <g id="SOURCES_Dark">
      <title>Dark</title>
      <g id="Group_12435">
        <g id="Graphic_12438">
          <circle cx="-686.1508" cy="-2864.7554" r="8.00000702080164" fill="#666"/>
          <circle cx="-686.1508" cy="-2864.7554" r="8.00000702080164" stroke="black" stroke-linecap="round" stroke-linejoin="round" stroke-width="0"/>
        </g>
        <g id="Graphic_12437"/>
        <g id="Graphic_12436">
          <circle cx="-686.1508" cy="-2864.7554" r="8.00000702080164" fill="#666"/>
          <circle cx="-686.1508" cy="-2864.7554" r="8.00000702080164" stroke="black" stroke-linecap="round" stroke-linejoin="round" stroke-width="0"/>
        </g>
      </g>
      <g id="Group_12433">
        <title>pause-alt</title>
        <g id="Graphic_12434">
          <path d="M -686.1508 -2856.7554 C -690.5668 -2856.7554 -694.1508 -2860.3394 -694.1508 -2864.7554 C -694.1508 -2869.1714 -690.5668 -2872.7554 -686.1508 -2872.7554 C -681.7348 -2872.7554 -678.1508 -2869.1714 -678.1508 -2864.7554 C -678.1508 -2860.3394 -681.7348 -2856.7554 -686.1508 -2856.7554 Z M -686.1508 -2857.5554 C -682.1748 -2857.5554 -678.9508 -2860.7794 -678.9508 -2864.7554 C -678.9508 -2868.7314 -682.1748 -2871.9554 -686.1508 -2871.9554 C -690.1268 -2871.9554 -693.3508 -2868.7314 -693.3508 -2864.7554 C -693.3508 -2860.7794 -690.1268 -2857.5554 -686.1508 -2857.5554 Z M -688.5508 -2868.7554 C -687.6708 -2868.7554 -686.9508 -2868.0354 -686.9508 -2867.1554 L -686.9508 -2862.3554 C -686.9508 -2861.4754 -687.6708 -2860.7554 -688.5508 -2860.7554 C -689.4308 -2860.7554 -690.1508 -2861.4754 -690.1508 -2862.3554 L -690.1508 -2867.1554 C -690.1508 -2868.0354 -689.4308 -2868.7554 -688.5508 -2868.7554 Z M -688.5508 -2867.9554 C -688.9908 -2867.9554 -689.3508 -2867.5954 -689.3508 -2867.1554 L -689.3508 -2862.3554 C -689.3508 -2861.9154 -688.9908 -2861.5554 -688.5508 -2861.5554 C -688.1108 -2861.5554 -687.7508 -2861.9154 -687.7508 -2862.3554 L -687.7508 -2867.1554 C -687.7508 -2867.5954 -688.1108 -2867.9554 -688.5508 -2867.9554 Z M -683.7508 -2868.7554 C -682.8708 -2868.7554 -682.1508 -2868.0354 -682.1508 -2867.1554 L -682.1508 -2862.3554 C -682.1508 -2861.4754 -682.8708 -2860.7554 -683.7508 -2860.7554 C -684.6308 -2860.7554 -685.3508 -2861.4754 -685.3508 -2862.3554 L -685.3508 -2867.1554 C -685.3508 -2868.0354 -684.6308 -2868.7554 -683.7508 -2868.7554 Z M -683.7508 -2867.9554 C -684.1908 -2867.9554 -684.5508 -2867.5954 -684.5508 -2867.1554 L -684.5508 -2862.3554 C -684.5508 -2861.9154 -684.1908 -2861.5554 -683.7508 -2861.5554 C -683.3108 -2861.5554 -682.9508 -2861.9154 -682.9508 -2862.3554 L -682.9508 -2867.1554 C -682.9508 -2867.5954 -683.3108 -2867.9554 -683.7508 -2867.9554 Z" fill="#c0e0ff"/>
        </g>
      </g>
    </g>
  </g>
</svg>

<svg height="24.75" viewBox="-698.526 -2877.13 24.75 24.75" width="24.75" xmlns="http://www.w3.org/2000/svg"><g fill="none"><circle cx="-686.151" cy="-2864.755" fill="#666" r="8"/><circle cx="-686.151" cy="-2864.755" r="8"/><circle cx="-686.151" cy="-2864.755" fill="#666" r="8"/><circle cx="-686.151" cy="-2864.755" r="8"/><path d="m-686.1508-2856.7554c-4.416 0-8-3.584-8-8s3.584-8 8-8 8 3.584 8 8-3.584 8-8 8zm0-.8c3.976 0 7.2-3.224 7.2-7.2s-3.224-7.2-7.2-7.2-7.2 3.224-7.2 7.2 3.224 7.2 7.2 7.2zm-2.4-11.2c.88 0 1.6.72 1.6 1.6v4.8c0 .88-.72 1.6-1.6 1.6s-1.6-.72-1.6-1.6v-4.8c0-.88.72-1.6 1.6-1.6zm0 .8c-.44 0-.8.36-.8.8v4.8c0 .44.36.8.8.8s.8-.36.8-.8v-4.8c0-.44-.36-.8-.8-.8zm4.8-.8c.88 0 1.6.72 1.6 1.6v4.8c0 .88-.72 1.6-1.6 1.6s-1.6-.72-1.6-1.6v-4.8c0-.88.72-1.6 1.6-1.6zm0 .8c-.44 0-.8.36-.8.8v4.8c0 .44.36.8.8.8s.8-.36.8-.8v-4.8c0-.44-.36-.8-.8-.8z" fill="#c0e0ff"/></g></svg>
